X:1
T:Trio Op. 114
T:Trio (2nd mvt.) Arr: clarinet (Bb), violin & piano
T:Johannes Brahms, Op. 114.
C:Johannes Brahms
%%score 1 2 { ( 3 4 ) | ( 5 6 ) }
L:1/8
Q:1/8=52
M:4/4
K:D
V:1 treble transpose=-2 nm="B♭ Clarinet"
V:2 treble nm="Violin"
V:3 treble nm="Piano"
V:4 treble 
V:5 bass 
V:6 bass 
V:1
[K:E]!p!"_dolce""^Adagio" (b2- b/g/e/d/) (e2- e/c/A/G/) | (F2- F/G/A/c/) (B2- B/=d/f/^d/) | %2
!<(! (e/a/g/a/) (e/a/b/a/)!<)!!>(! (b/a/g/a/ g/f/c/f/)!>)! | %3
"_dim." (e>d)!>(! (d/c/)(c/B/) B>!>)!B- B z | z/!pp! (g/e/d/ e) z z/ (c/A/G/ F) z | %5
 z/ (c/^A/G/ F) z z/ (f/d/c/ B) z |!<(! (b8-!<)! | %7
!>(! b/d/)d- (d/c/)(c/B/)!>)! (B>D) (D/C/)(C/B,/) |!p! B,3/2 z/ B,3/2 z/ (B,2- B,/^A,/A,/G,/) | %9
 z .=G, z .G, z F,3 |"^espress." ^^f3/2 z/!<(! g3/2 z/ b2- b/g/f/^a/!<)! | %11
!>(! g/d/^^c/^e/ g/d/f/=e/ z!>)! .B z .^A | z8 | z8 | %14
!p! (D/4F/4B/4F/4 D/4F/4d/4B/4) (E/4G/4B/4G/4 E/4G/4e/4G/4) (E/4^A/4c/4B/4 e/4B/4A/4E/4) (D/4F/4B/4d/4) (B,/C/ | %15
 D/) z/ z z2 z4 | z8 | z8 | z2 z3/2 (G/!<(! ^A/B/)(=G/!<)!=A/)!>(! (G/F/)!>)!F- | %19
!<(! (F/G/^A/!<)!B/)!>(! (D/C/)!>)!"^dim."C- (C/=C/)C- (C/B,/)(B,/^A,/) | %20
!pp! (C/B,/) z B, z!<(! (B,!<)!!>(! B2!>)! b) |!p! (b3 g) (e3 c) | (F3 c) (B3 f) | %23
 e>(e!<(! f/e)(e/ b/!<)!a)!>(!(e/ g/f)!>)!f/- | %24
 f/!<(!(f/^e/f/-) f/(f/e/f/-) f/(f/!<)!b/!>(!a/-) a/(d/g/f/)!>)! |!p! (d/e/) z z2 z (f2 ^e) | %26
 z4 z"^dim." (=dB^A) | z2 z!pp! (^A B>G) =D2 | z4 z2 z3/2 (G/ | A>=F) =C2 z2 z3/2"^dolce" (g/ | %30
 a/f/=d/c/ d) z (3(a/f/c/(3d/B/^E/ F) z/ (c'/ | =d'/b/g/^^f/ g) z (3(d'/b/f/(3g/=d/^A/ B) z | %32
 z/"^dolce"!p! (c'/a/g/ a) z z/ (f/=d/c/ B) z | z/ (f/d/c/ B) z z/ (b/g/f/ e) z | %34
 E,4-!<(! E, e2!<)!!f! e'- |!>(! e'/g/g/B/ B/A/A/G/!>)! G!<(! B,!<)!!>(!=C!>)!B, | %36
"^espr." (B,/C/D/E/ D/C/)C- C/(E/=C-) C/(=D/B,-) | %37
 (B,/C/!<(!D/E/) (D/C/)!<)!C- C/(E/!>(!=C-) (C/B,/^A,/!>)!D/) | %38
 B,2 z/!<(! (B/A/G/ B/A/) z z/ (c/d/e/)!<)! |!f! e2- e(f e)(E,C)(=G, | %40
 F,) z z3/2!<(! (c/ d/!<)!e/)!>(!(=c/!>)!=d/) (c/B/)B- | %41
!<(! (B/c/=d/!<)!e/)!f! (g/!>(!f/)(f- f/^e/)!>)!!p!(e- e/f/)(f- | %42
"^dim." f/g/)(g- g/f/)(f- f/e/)!>(!(e- e/=d/)(d-!>)! |!pp! d=c) (c2- cB)(Ba) | %44
"_espr."!p! a-(3a/g/f/ (3(e/d/)(^e/ g/f/) z2 z3/2 (b/ | %45
"_cresc." ^b/)(c'/-(3c'/a/f/) (3(e/d/)(^e/g/f/) z2 z3/2!f! (b/ | %46
 c'/)(=d'=d/) z3/2 (C/ D/)(EE,/) z3/2!p! (G,/ | %47
 B,/G,/)"_dim." z/ (G/ B/G/) z/ (B,/ D/B,/) z/ (B/ d/B/) z | %48
 z"^dolce"!p!!<(! (b-!<)!!>(! b/!>)!g/e/d/) z!<(! (e-!<)!!>(! e/!>)!c/A/G/) | %49
 z (F,- F,/G,/A,/C/) z4 | z8 | z/ (B,/=C-) C/(^C/!<(!=D-) D/(^D/!<)!!>(! F2 E)!>)! | E4 B,4 | %53
 !fermata!G,8 |] %54
V:2
!p!"^Adagio" z/"_dolce" DD/- D z z/ DD/- D z | z/ CC/- C z z/ =CC/- C z | %2
!pp!!<(! D4-!<)!!>(! D3 z!>)! | z2 (A>^B)!<(! (B/c/)(c/d/)!<)!!>(! (d/a/)!>)!a- | %4
 (a2- a/f/d/c/) (d2- d/B/G/F/) | (E2- E/F/^G/B/) (A2- A/B/c/e/) | %6
!<(! (d/a/^g/a/) (B/a/b/a/) D/(d'/c'/!<)!d'/!>(! c'/b/f/b/)!>)! | %7
!>(! (a>e) (e/d/)(d/c/)!>)! (c/e/)e- (e/d/)(d/c/) |!p! c3/2 z/ c3/2 z/ (c>B) (B>A) | %9
 z (.^G z .G) z ^G,3 | z (.D z .d) z (^D C2) | C2 C z z4 | %12
"^espress." ^E3/2 z/ F3/2 z/!<(! (A2- A/=E/D/=F/) | %13
 (A/C/ (3B,/D/F/) (3(A/!<)!E/C/(3B,/!>(!F/D/) z (C2!>)! B,) | %14
!p! (A,/>C/) (A/>E/) (A,/>D/) (A/>F/) (A,/>D/) (A/>=F/) (A,/4C/4E/4A/4) (C/D/ | %15
 E/F/^G/A/ G/F/)F- (F/=F/)F- (F/E/)(E/^D/) | (F/E/) z z/ (E/F/!<(!^G/) (G/F/)F z/ (F/G/A/)!<)! | %17
!f! (A2 ^G)(B A)!<(!(A,F)!<)!!>(!(=C!>)! | %18
!p! B,) z z/!<(! (F/!<)!!>(!^G/!>)!A/) z/!<(! (E/=F/!<)!=G/)!>(! (F/E/)!>)!E- | %19
!<(! E/F/^G/!<)!A/!>(! A2-!>)!"_dim." (A/_B/)(B/=F/) F(E/D/) |!pp! C z C z (C3 A,) | %21
"^pizz." (3z/ A,/C/ (3F/A/c/ (3f/d/A/ z (3z/ B,/D/ (3G/B/d/ (3e/B/G/ z | %22
 (3z/ G,/B,/ (3E/G/B/ (3e/c/g/ z (3z/ E/G/ (3A/=c/e/ (3a/f/A/ z | %23
 z/"^arco" (D/C/D/-) D/(D/C/D/-) D/(D/G/F/-) F/(B,/E/D/) | %24
 (B,/=C)!<(!(E/ F/E)(D/ B/!<)!A)!>(!(E/ G/F)!>)!F/ | z (D2 C) z4 | z"_dim." (ge^d) z2 z!pp! (B | %27
 =c>A E2) z4 | z2 z3/2 (a/ _b>g) d2 | z2 z3/2 (f/ g>)(f g3/2) z/ | %30
 z2"^dolce" (=c'/a/e/^d/ e) z (3(e'/b/^g/ a/4e/4=c/4A/4 | %31
 D) z (f/=c/A/^G/ A) z (3(a/f/B/ c/4A/4F/4E/4) | %32
!p!"_espress."{/D} (d2- d/B/G/F/) (G2- G/E/=C/B,/) | (A,2- A,/B,/C/E/) (D2- D/E/F/A/) | %34
 G/(d'/c'/d'/) e/!<(!(d'/e'/d'/) G/(g/f/g/ f/e/B/e/)!<)! | %35
!f!!>(! (d>f) (f/e/)(e/A/)!>)! A!<(! (A,!<)!!>(!_B,!>)!A,) | %36
"^espr." (A,/B,/C/D/ C/B,/)B,- B,/(D/_B,-) B,/(=C/A,-) | %37
 (A,/B,/)!<(!(A,/B,/) (A,/B,/)!<)!(A,/B,/) (A,/=F/)!>(!(D/_B,/) (F/d/)(E/!>)!d/) | %38
 (c/d/e/f/)!<(! (e/^d/)d (d/e/f/g/) (f/^e/)!<)!e | z!p! (d/e/) (=f/g/) z (e/f/) z (c/d/) z | %40
 A z z/ (b/c'/d'/) z/ (a/_b/=c'/) (b/a/)a- | %41
!<(! (a/b/=c'/!<)!d'/)!f! (f'/!>(!e'/)(e'- e'/^d'/)!>)!!p!(d'- d'/e'/)(e'- | %42
"_dim." e'/f'/)(f'- f'/e'/)(e'- e'/d'/)!>(!(d'- d'/=c'/)(c'-!>)! |!pp! c'_b) (b2- ba)aA | %44
 z2 (3z!p!"_espr." (A3/2a/) a-(3a/g/f/ (3(e/d/)(^e/ g/f/) | %45
 z2 z3/2"_cresc." (A/ c/)d/-(3d/A/F/ (3(E/D/)(^E/ G/F/) | %46
 z3/2!f! (=c'/ ^a/)(bB/) z3/2 (d/"_dim." ^B/)(cA/) | %47
 z/!p! (F/A/F/) z/ (f/a/f/) z/ (A/c/A/) z/ (a/c'/a/) | %48
 z"^pizz." !arpeggio![A,Fd]!arpeggio![A,Fd]!arpeggio![A,Fd] z !arpeggio![B,GB]!arpeggio![B,GB]!arpeggio![B,GB] | %49
 z !arpeggio![G,DB]!arpeggio![G,DB]!arpeggio![G,DB]"^arco" (A2- A/B/c/d/) | (ed) z (d ed) z d | %51
 z/!p! (A,/_B,-) (B,/=B,/!<(!=C-) C/(^C/!<)!!>(! E2 D)!>)! | D4 D4 | !fermata![DA]8 |] %54
V:3
!p!"^Adagio" z/"_dolce" (f/d/c/ d) z z/ (B/G/F/ E) z | z/ (g/e/d/ c) z z/ (a/f/e/ d) z | %2
!<(! ([dgd'][Bgb][dgd']!<)![Aga]!>(! [dgd'][dad'][dbd'][DBd])!>)! | %3
[K:bass] z ([E,C][=F,D][^F,^D] [A,E]/[F,A,][=F,^G,B,]/ =DC) | z/ (F/D/C/ D) z z/ ([B,D]B,/ B,) z | %5
 z/ B,B,/- B, z z/ [A,E][CE]/- [CE] z | %6
[K:treble]!<(! ([DAd][CAc][FAf][EAe] [DFAd])!<)![K:bass]!>(! (D^DF)!>)! | %7
 z"_dim." ([A,CE][^G,B,=F][=F,G,]) z ([C,E,A,][B,,F,G,][^G,,F,]) | %8
 z!p! (.[C,E,] z .[C,E,]) z [A,,F,]3 |[K:treble] [Bd]3/2 z/ [Bd]3/2 z/ (d>c) (c>B) | %10
 z (.[^GB] z .[FA]) z ([^B,F^B][CAc][D=Bd] | %11
 [CAc])([^D^G^B^d][CAc][=B,G=B]) [A,FA]3/2 z/ [^G,B,^E]3/2 z/ | %12
[K:bass] z (.[^G,B,] z .[F,A,]) z!p! ([A,=CF][A,^CE][A,D] | %13
 [A,C][F,B,F][A,CE][F,B,D]) [E,A,C]3/2 z/ [D,^G,]3/2 z/ | %14
[K:treble]!p! (e/f/^g/a/ g/f/)(f- f/=f/)(f- f/e/) [Ee] | %15
[K:bass] (C/4A,/4E,/4A,/4 C/4A,/4E,/4A,/4) (E/4C/4E,/4C/4 E/4C/4E,/4C/4)[K:treble] (A,/4E/4A/4=F/4 A/4F/4A,/4F/4 =C/4F/4=c/4E/4 B/4E/4A,/4^D/4 | %16
 ^G,/4E/4A,/4E/4B,/4E/4C/4E/4 B,/4E/4^A,/4E/4A,/4E/C/4) (A,/4F/4B,/4F/4C/4F/4!<(!D/4F/4 C/4F/4^B,/4^D/4B,/4D/=A/4)!<)! | %17
[K:bass] z!p! ([=C,A,=C]/[D,B,D]/) ([E,CE]/[=F,D=F]/) z ([B,^D]/[CE]/) z (B,,/C,/) z | %18
[K:treble] (E/4e/4F/4f/4^G/4^g/4A/4a/4 G/4g/4F/4f/4F/4f/4E/4e/4 E/4e/4=C/4=c/4) z/4 B,/4-[B,B]/4D/4[K:bass] z/4 D,/4-[D,D]/4B,/4[K:treble]!<(! (^C/4[A^c]/4D/4[Bd]/4 | %19
 E/4[ce]/4C/4!<)![Ac]/4 C/4[Ac]/4E,/4[CE]/4)[K:bass]!>(! (F,/4D/4F/4D/4F/4D/4F,/4D/4) (=F,/4D/4=F/4D/4F/4D/4F,/4D/4)!>)! (F,/4D/4) z/ (E,/4B,/4) z/ | %20
 z!pp! [C,A,] z [C,A,C][K:treble] z (A2 G) | %21
 z!>(! ([A,CF][F,E])!>)! z[K:bass] z!>(! ([D,B,][B,,E,])!>)! z | %22
 z!>(! ([D,G,B,][C,G,A,])!>)! z z!>(! ([G,A,E][F,A,D])!>)! z | %23
[K:treble] ([dgd'][Bgb]!<(![dgd'][Aga] [dgd']!<)![dad']!>(![dbd'][Bdb])!>)! | %24
!<(! ([E=ce][Ece][Ede][EBe]!<)!!>(! [EAe][EBe][Ece][E^c])!>)! | %25
!p! z/ (F/^E) z/ (F/[C=EG]) z/ (F/[CE^A]) z/ (B/[^D=A=c]) | %26
 z/ (B/[G^A]) z/ (B/[F=A=c])"_dim." z/ (F/[FA^d]) z/ (e/[^G=d=f]) | %27
!pp! z/ (^d/[E=ce]) z/ (B/[E^Gc]) z/!<(! (B,/[=CA]- [CA]/B,/!<)![CA]- | %28
!>(! [CA]/B,/[=CA]- [CA]/^C/[DFA])!>)! z/ (c/[D_Bd]) z/ (A/[DFB]) | %29
 z/!<(! (A,/[_B,G]- [B,G]/A,/!<)![B,G]-!>(! [B,G]/A,/[B,=EG]- [B,EG]/B,/!>)![=B,EG]-) | %30
 [B,EG]/B,/"_dim." [=CEG]2 [CEG]2 [A,CEG]2 [CEG]- | [CEG] [=CFA]2 [CFA]2 [A=cf]2 [Acf] | %32
"_dolce" z/ [DBd]([D-A=c]/ [DGB]) z z/ [EG][EG]/- [EG] z | %33
 z/ [EA][EA]/- [EA] z z/ [DA][DA]/- [DA] z |!<(! ([Gdg][Fdf][Bdb][Ada]!<)! [GBdg])!>(! (G^G!>)!B) | %35
 z ([DFA][_B,CG][G,B,C])!<(! ([F,A,D]/[Af]/)!<)!([Af]-!>(! [Af]/[Ge]/)([Ge]/!>)![FA]/) | %36
 z/4 ([A,FA]/->[A,FA]/[A,FA]/->[A,FA]/[A,FA]/->[A,FA]/[A,FA]3/4-!<(! [A,FA]/4[A,FA]/[A,FA]/!<)!!>(![A,=FA]/[G,EG]/4-)!>)!!<(! ([G,EG]/4[G,EG]/!<)!!>(![G,EG]/[G,EG]/[F,D^F]/4-)!>)! | %37
!<(! ([F,DF]/4[A,FA]/[A,FA]/[A,FA]/[A,FA]/4- [A,FA]/4[A,FA]/[A,FA]/[A,EA]/[A,EA]/4-)!<)! [A,EA]/4!>(![A,DA]/[A,DA]/[_B,D_B]/[B,DB]/4- [B,DB]/4[B,DB]/[A,=FA]/[^G,D^G]/!>)![CGc]/4 | %38
 z/4 [A,A]/[A,A]/[A,A]/[A,A]/4- [A,A]/4[A,A]/!<(![A,A]/[B,B]/[=C=c]/4- [Cc]/4[Cc]/[B,B]/[B,B]/[B,B]/4- [B,B]/4[B,B]/[B,B]/!<)![A,A]/[^G,^G]/4 | %39
!p! z ([=F,D=F]/[G,EG]/) ([A,FA]/[_B,G_B]/) z ([^G,E^G]/[A,FA]/) z ([E,CE]/[F,DF]/) z | %40
"_legato" (A/B/c/d/ c/4c'/4B/4b/4B/4b/4A/4a/4 A/4a/4=F/4=f/4) z/4 (E/4e/4G/4) z/4 (G/4g/4e/4) ([d^f]/4^F/4[eg]/4G/4 | %41
!<(! [fa]/4A/4[df]/4F/4 [df]/4F/4[FA]/4!<)!A,/4)!f!!>(! ([A=c^d]/4^D/4[GBe]/4E/4[GBe]/4E/4[Ec]/4=C/4)!>)![K:bass]!p! (!courtesy!=C/4E,/4=C,/4F,/4C,/4F,/4B,/4F,/4 B,/4F,/4B,,/4E,/4B,,/4E,/4^A,/4E,/4 | %42
"_dim." ^A,/4E,/4^A,,/4E,/4A,,/4E,/4B,/4F,/4 B,/4F,/4B,,/4E,/4B,,/4E,/4B,/4G,/4) (B,/4G,/4B,,/4G,/4!>(!B,,/4G,/4B,/4G,/4 B,/4G,/4=C,/4G,/4C,/4G,/4=C/4!>)!G,/4) | %43
"_dim." (=C/4G,/4=C,/4G,/4^C,/4G,/4^C/4G,/4 C/4G,/4C,/4G,/4D,/4G,/4D/4G,/4 D/4G,/4D,/4G,/4E,/4G,/4E/4G,/4 E/4G,/4E,/4G,/4D/4G,/4D,/4G,/4) | %44
 !arpeggio![C,G,C]/[K:treble] (^D/[G,CE]) z/ (F/[A,CG]) z/ (^E/[A,=DF]) z/ (^G/[DA]) | %45
 z/ (^d/!<(![Gce]) z/ (F/[A,CG]) z/ (^e/[A=df]) z/ (^G/!<)![DA]) | %46
 z/ ([^G^e^g]/[Afa]) z/ ([F^df]/[=G=e=g]) z/!>(! ([G^A]/[=D^GB]) z/ ([^EG]/[CF=A])!>)! | %47
"_dim." z/ (^B/[DFAd]/[Cc]/) z/ (B/[Ad]/[Cc]/) z/ (^d/[FAcf]/[Ee]/) z/ (d/[Fcf]/[Ee]/) | %48
!pp! z/"_dolce" ([ff']/[dd']/[cc']/ [ee']/[dd']/) z z/ ([Bb]/[Gg]/[Ff]/ [Aa]/[Gg]/) z | %49
 z/ ([G,-B,-E]/[G,B,F]/[B,EG]/ [EG-c]/[DGB]/) z z/ ([CGA]/[DGB]/[EGc]/ [Acf]/[GAe]/) z | %50
"_dolce" z/ (^g/[Afa]-) [Afa]/(^e/[Adf]-) [Adf]/(c/[DBd]-) [DBd]/(^A/[DGB]-) | %51
 [DGB]/(F/!<(! [G,EG]2) [G,EG]2!<)!!>(! ([G,EG]2 [A,DF])!>)! | %52
 [F,DF]2[I:staff +1] [A,,F,A,]2[I:staff -1] [Fdf]2 [A,FA]2 | !arpeggio!!fermata![DFAdfad']8 |] %54
V:4
 x/ [FA][EG]/ F x3/2 [B,D][B,D]/- [B,D] x | x/ [GA][GA]/- [GA] x3/2 FF/- F x | x8 | %3
[K:bass] x6 [E,=G,]2 | x/ A,G,/ F, x5 | x8 |[K:treble] x5[K:bass] [F,A,]2 [A,B,] | x8 | x8 | %9
[K:treble] x4 B2- (B/A/)(A/^G/) | x8 | x8 |[K:bass] x8 | x8 |[K:treble] x8 | %15
[K:bass] x4[K:treble] x4 | ^G,/A,/B,/C/ B,/^A,/A, A,/B,/C/D/ C/^B,/B, |[K:bass] x8 | %18
[K:treble] x6[K:bass] x[K:treble] x | x2[K:bass] x6 | x4[K:treble] x [A,C]3 | x4[K:bass] x4 | x8 | %23
[K:treble] x8 | x8 | x8 | x8 | x8 | x8 | x8 | x8 | x8 | x8 | x8 | x5 [B,D]2 [DE] | x8 | x8 | x8 | %38
 x8 | x8 | A/4a/4B/4b/4c/4c'/4d/4d'/4 x6 | x4[K:bass] x4 | x8 | x8 | x/[K:treble] x15/2 | x8 | x8 | %47
 x8 | x8 | x8 | x8 | x8 | x8 | x8 |] %54
V:5
 z/ (D,,/F,,/A,,/ D,) z z/ (G,,/B,,/D,/ G,) z | z/ (A,,/C,/E,/ A,) z z/ (D,/F,/A,/ D) z | %2
 ([B,,,B,,][D,,D,][A,,,A,,][D,,D,] [B,,,B,,][A,,,A,,][G,,,G,,][^G,,,^G,,]) | %3
 z (A,,,A,,A,,, A,,A,,,- [A,,,A,,]2) | %4
 z/!pp! (D,,/F,,/A,,/ D,) z z/ G,,/B,,/[I:staff -1]D,/ G,[I:staff +1] z | %5
 z/ ^G,,/B,,/[I:staff -1]E,/ ^G,[I:staff +1] z z/ A,,/C,/[I:staff -1]E,/ A,[I:staff +1] z | %6
 ([F,,A,,F,][E,,A,,E,][D,,A,,D,][C,,A,,C,] [B,,,A,,B,,]) ([B,,,B,,]2 [^D,,,^D,,]) | %7
 z [E,,,E,,]2 E,, z [E,,,E,,]2 E,, | z (.[A,,,A,,] z .[A,,,A,,]) z [D,,,D,,]3 | %9
!<(! [B,D]3/2 z/ [B,D]3/2 z/!<)!!>(! (D>C) C>!>)!B, | %10
 z (.[^G,B,] z .[F,A,]) z [^D,F,][C,A,][C,-=B,] | %11
 [C,A,][C,-^G,^B,][C,A,][C,G,] [C,F,]3/2 z/ C,,3/2 z/ | z D,, z D, z (^D,,E,,=F,, | %13
 E,,D,,C,,D,,) E,,3/2 z/ E,,,3/2 z/ | %14
[K:treble] (E/F/^G/A/ G/F/)(F- F/=F/)(F- F/E/)[K:bass] (E,,,/4E,,/4A,,/4E,/4) | %15
 (A,,,/>A,,/A,,,/>A,,/ ^A,,,/>^A,,/B,,,/>B,,/) (=C,,/>=C,/C,,/>C,/ =A,,,/>=A,,/B,,,/>B,,/) | %16
 E,E, E,E,/C,/ F,F, F,F,/^D,/ | z (A,,/B,,/) (=C,/D,/) z (^D,/E,/) z (^G,,/A,,/) z | %18
 ^G,,/A,,/B,,/C,/ B,,/A,,/=C,/A,,/ (C,/A,,/)(D,/B,,/) (B,,/E,/)([A,,^C,]/[B,,D,]/) | %19
 ([C,E,]/A,,/)A,, D,,>D,, D,,>D,, D,,E,, | z [A,,,A,,] z [G,,,G,,] z ([F,,,F,,][E,,,E,,]A,,,) | %21
 z (A,,,D,,) z z (G,,,G,,) z | z (A,,,A,,) z z (=C,,=C,) z | %23
 ([B,,,D,,B,,][D,,G,,D,][A,,,D,,A,,][D,,G,,D,] [B,,,D,,B,,][A,,,D,,A,,][G,,,D,,A,,][^G,,,^G,,]) | %24
 ([A,,,A,,][=C,,E,,=C,][B,,,E,,B,,][D,,E,,D,] [C,,E,,C,][B,,,E,,B,,][A,,,E,,A,,][^A,,,^A,,]) | %25
 (.B,,,.[B,,^G,])(.B,,,.[B,,^A,]) (.B,,,.[B,,=G,])(.B,,,.[B,,F,]) | %26
 E,,[E,C] E,,[E,^D] E,,[E,=C] E,,[E,B,] | A,,,[E,A,=C] =C,,[=C,E,^G,] =F,,[C,A,] _E,,[A,,C,=G,] | %28
 D,,[A,,=C,F,] D,,[D,A,=C] G,,,[D,G,_B,] _B,,,[_B,,D,F,] | %29
 _E,,[_B,,_E,G,] C,,[G,,B,,=F,] =C,,[G,,B,,=E,] =B,,,=B,, | %30
 A,,, [A,,E,G,]2 [A,,E,G,]2 [D,,A,,]2 [D,,A,,]- | [D,,A,,] D,,2 D,,2 [D,A,=C]2 [D,A,C] | %32
 z/ (G,,/B,,/D,/ G,) z z/ =C,/E,/[I:staff -1]G,/ =C[I:staff +1] z | %33
 z/ (C,/E,/[I:staff -1]A,/ C)[I:staff +1] z z/ (A,,/D,/F,/[I:staff -1] A,)[I:staff +1] z | %34
 ([B,,,B,,][A,,,A,,][G,,,G,,][F,,,F,,] [E,,,E,,]) ([E,,E,]2 [^G,,,^G,,]) | %35
 z [A,,,A,,]2 [A,,,A,,] [A,,,A,,]>[D,D] [C,C][A,,,A,,] | %36
 (D,,D,,D,,D,,) (D,,,/D,,/D,,,/D,,/) (D,,,/D,,/D,,,/D,,/) | %37
 D,,/D,,/D,,/D,,/ ^D,,/D,,/E,,/E,,/ =F,,/F,,/F,,/F,,/ =D,,/D,,/E,,/E,,/ | %38
 ([A,,,A,,]/[B,,,B,,]/[C,,C,]/[D,,D,]/ [=C,,=C,]/[B,,,B,,]/)[B,,,B,,] ([B,,,B,,]/[^C,,^C,]/[^D,,^D,]/[E,,E,]/ [=D,,=D,]/[C,,C,]/)[C,,C,]/[B,,,B,,]/ | %39
 z [A,,,A,,][A,,,A,,] z D,, z [^G,,,^G,,] z | %40
 C,/D,/E,/F,/ E,/D,/=F,/D,/ (F,/D,/)(G,/E,/) (E,/A,/) ([D,^F,]/[E,G,]/) | %41
 ([F,A,]/D,/)D, (G,,,/G,,/)([G,,,G,,]/[A,,,A,,]/) ([A,,,A,,]>[G,,,G,,]) ([G,,,G,,]>[F,,,F,,]) | %42
 ([F,,,F,,]>[G,,,G,,]) ([G,,,G,,]>[=F,,,=F,,]) ([F,,,F,,]>[E,,,E,,]) ([E,,,E,,]>[_E,,,_E,,]) | %43
 [_E,,,_E,,]3 D,, D,,2 [C,,A,,][B,,,A,,] | A,,,[A,,E,] A,,,[A,,E,] A,,,[A,,D,] A,,,[A,,D,F,] | %45
 A,,,[A,,E,G,] A,,,[A,,E,] A,,,[A,,F,A,] A,,,[A,,D,F,] | %46
 A,,,[A,,^D,F,] A,,,[A,,E,G,] A,,,[A,,^E,] A,,,[A,,F,] | %47
 A,,,[A,,F,A,] A,,,[A,,F,A,] A,,,[A,,E,G,] A,,,[A,,E,G,] | %48
 (D,,/4A,,/4D,/4F,/4) z/4 (A,/4D/4F/4) z/4 (F,/4A,/4D/4) z/4 (D,/4F,/4A,/4) (D,,/4G,,/4B,,/4D,/4) z/4 (G,/4B,/4D/4) z/4 (D,/4G,/4B,/4) z/4 (B,,/4D,/4G,/4) | %49
 (D,,/4G,,/4B,,/4E,/4) z z/4 (G,,/4B,,/4E,/4 D,,/4G,,/4B,,/4D,/4) (D,,,/4D,,/4A,,/4E,/4) z z/4 (D,,/4A,,/4E,/4 D,,/4G,,/4A,,/4C,/4) | %50
 D,,,[D,A,=C] D,,[D,A,C] D,,[D,G,B,] D,,[D,G,] | %51
 D,,,!arpeggio![D,,E,] D,,,!arpeggio![D,,E,] D,,, ([D,,A,,]2 D,) | %52
!ped! [D,,D,]2 [D,,,D,,]2 [D,A,D]2 [D,,,D,,]2 | !arpeggio!!fermata![D,A,]8!ped-up! |] %54
V:6
 x8 | x8 | x8 | x8 | x/ D,,D,,/- D,, z x/ D,,D,,/- D,, x | x/ D,,D,,/- D,, x3/2 C,,C,,/- C,, x | %6
 x8 | x8 | x8 | x4 B,2- (B,/A,/)(A,/^G,/) | x8 | x8 | x8 | x8 |[K:treble] x7[K:bass] x | x8 | %16
 (E,,/F,,/^G,,/A,,/) (=G,,/F,,/)F,, (F,,/^G,,/^A,,/B,,/) (=A,,/G,,/)(G,,/F,,/) | %17
 x E,,E,, x A,, x ^D,, x | [E,,E,][E,,E,][E,,E,][E,,E,] [E,,E,]E,,E,,E,, | E,,(E,,/A,,,/) x6 | x8 | %21
 x8 | x8 | x8 | x8 | x8 | x8 | x8 | x8 | x8 | x8 | x8 | x/ G,,G,,/- G,, x3/2 G,,G,,/- G,, x | %33
 x/ G,,G,,/- G,, x3/2 F,,F,,/- F,, x | x8 | x8 | D,,,4 x4 | D,,,2 ^D,,,E,,, =F,,,2 =D,,,E,,, | x8 | %39
 x8 | [A,,A,][A,,A,][A,,A,][A,,A,] [A,,A,]A,,A,,A,, | A,,(A,,/D,,/) x6 | x8 | x3 D,,, z x3 | x8 | %45
 x8 | x8 | x8 | x8 | D,,- D,, x2 (D,,, D,,) x2 | x8 | x8 | x8 | x8 |] %54

